X:30
T:Nylandspojkarnas mitt i
T:Polska efter Nylandsgubben
R:polska J
A:Bingsj\"o, Dalarna
Z:id:hn-jp-30
M:3/4
L:1/16
K:D
|: A2FA B2B2 A4 | A2FA d2d2 A4 | B3A G2F2 E4 | a3g f2ef d4 |
A2FA B2B2 A4 | A2FA d2d2 A4 | B3A G2F2 E3D | CDEC D8 :|
|: abaf d2f2 d2f2 | abae c2e2 c2e2 | f3e d2c2 B3A | ^GABG ABAE C2E2 |
abaf d2f2 d2f2 | abae c2e2 c2e2 | f3e d2c2 B3A | ^GABG A8 :|
<end>
<start>
